src/static/logos/nuxt-icon.svg

<?xml version="1.0" encoding="UTF-8"?>
<svg width="256px" height="191px" viewBox="0 0 256 191" version="1.1" xmlns="http://www.w3.org/2000/svg" xmlns:xlink="http://www.w3.org/1999/xlink">
    <!-- Generator: Sketch 59.1 (86144) - https://sketch.com -->
    <title>Group</title>
    <desc>Created with Sketch.</desc>
    <g stroke="none" stroke-width="1" fill="none" fill-rule="evenodd">
        <g transform="translate(0.000173, 0.000000)">
            <path d="M77.8911791,183.614864 C77.7012551,183.279 77.5321086,182.931804 77.384692,182.575232 C76.3622173,180.209762 76.0473968,177.598605 76.478347,175.057899 L15.9931374,175.057899 L105.88125,16.874014 L135.390782,68.7489446 L143.947746,53.6076496 L118.223538,8.29039232 C117.503793,6.98418906 113.158668,0 105.667993,0 C102.282527,0 97.4309144,1.46614656 93.485647,8.39702119 L2.42461749,168.500225 C1.65155838,169.8864 -2.10710822,177.163819 1.62490116,183.614864 C3.33096269,186.547156 6.9563432,190.039251 14.9535063,190.039251 L91.2197845,190.039251 C83.2759358,190.039251 79.5972406,186.600471 77.8911791,183.614864 Z" fill="#01C58E"></path>
            <path d="M253.242307,168.500225 L178.415518,36.6803211 C177.64246,35.2941462 173.323992,28.2832999 165.806658,28.2832999 C162.421193,28.2832999 157.56958,29.7227893 153.624314,36.6536639 L143.947746,53.6076496 L152.558025,68.7489446 L165.88663,45.157314 L239.913702,175.057899 L211.763688,175.057899 C212.123898,177.20534 211.921853,179.409465 211.17723,181.45563 C211.020409,181.907379 210.824167,182.344463 210.590771,182.761832 L210.350856,183.241662 C206.565533,189.692707 198.381769,190.039251 196.782337,190.039251 L240.820047,190.039251 C242.446137,190.039251 250.603243,189.692707 254.388568,183.241662 C256.067972,180.309369 257.267546,175.377785 253.242307,168.500225 Z" fill="#108775"></path>
            <path d="M210.350856,183.241662 L210.590771,182.761832 C210.824167,182.344463 211.020409,181.907379 211.17723,181.45563 C211.921853,179.409465 212.123898,177.20534 211.763688,175.057899 C211.348809,172.741872 210.517913,170.520128 209.311226,168.500225 L152.611339,68.7489446 L143.947746,53.6076496 L135.337467,68.7489446 L78.6642383,168.500225 C77.5638612,170.544123 76.8243845,172.762554 76.478347,175.057899 C76.0222311,177.590906 76.3092441,180.201797 77.3047209,182.575232 C77.4521368,182.931805 77.6212834,183.279 77.8112079,183.614864 C79.5172694,186.547156 83.1426494,190.039251 91.1398127,190.039251 L196.702365,190.039251 C198.381769,190.039251 206.565533,189.692707 210.350856,183.241662 L210.350856,183.241662 Z M143.947746,83.89024 L195.769362,175.057899 L92.1527868,175.057899 L143.947746,83.89024 Z" fill="#2F495E"></path>
        </g>
    </g>
</svg>

<svg width="256" height="191" xmlns="http://www.w3.org/2000/svg"><g fill="none" fill-rule="evenodd"><path d="M77.891 183.615a9.437 9.437 0 01-.506-1.04 13.329 13.329 0 01-.906-7.517H15.993l89.888-158.184 29.51 51.875 8.557-15.141L118.224 8.29c-.72-1.306-5.065-8.29-12.556-8.29-3.385 0-8.237 1.466-12.182 8.397L2.425 168.5c-.773 1.386-4.532 8.664-.8 15.115 1.706 2.932 5.332 6.424 13.329 6.424H91.22c-7.944 0-11.623-3.439-13.329-6.424z" fill="#01C58E"/><path d="M253.242 168.5L178.416 36.68c-.773-1.386-5.092-8.397-12.61-8.397-3.385 0-8.236 1.44-12.182 8.37l-9.676 16.955 8.61 15.14 13.329-23.59 74.027 129.9h-28.15a12.61 12.61 0 01-.587 6.398 8.157 8.157 0 01-.586 1.306l-.24.48c-3.785 6.45-11.97 6.797-13.568 6.797h44.037c1.626 0 9.783-.346 13.569-6.797 1.68-2.933 2.879-7.864-1.147-14.742z" fill="#108775"/><path d="M210.351 183.242l.24-.48a8.17 8.17 0 00.586-1.306c.745-2.047.947-4.25.587-6.398a19.486 19.486 0 00-2.453-6.558l-56.7-99.751-8.663-15.141-8.61 15.14L78.664 168.5a20.18 20.18 0 00-2.185 6.558 13.329 13.329 0 00.826 7.517c.147.357.316.704.506 1.04 1.706 2.932 5.332 6.424 13.329 6.424h105.563c1.679 0 9.863-.346 13.648-6.797zM143.948 83.89l51.822 91.168H92.153l51.795-91.168z" fill="#2F495E"/></g></svg>
